X:0
T:Turkish Delight
M:6/8
C:Trad. arrangement and ("B" and "C") parts by © Paul Gitlitz 2009
O:Turkey
K:F#m
"F#m"F2^E "D"F2A|"Bdim"G2B "A"Ac2|"Bm"BAG "F#m"AGF |"C#"^EFG "C#/G#"E=DC|!
"F#m"F2^E "D"F2A|"Bdim"G2B "A"Ac2|"Bm"BAG "F#m"AGF |"C#"^EFG "F#m"F3:|!
|:"A"c^Bc "D"d3|"Bm"GA^A B3|1 "Bdim"GA^A B^Bc|"D"dBd "A"c3 :|2 "D"cdc "Bm/D"BAG| "Bdim"F^EG "F#m"F3 ||!
"A"aga "F#m"f2f|"G#dim"gfg "D"d3|1"Bdim"^Bcd "A"cBG|"G#"^BGB "C#7"c3:|2"F#m"FGA "D"^Bcd |"C#"cAG "F#m"F3|!
|:"F#m"cFc "D"dFd|"F#m"cFc "D7/C"^BFB|"F#m"^Bcd "G#m"^efg|"A"agf "C#m"c3|!
"F#m"cFc "D"dFd|"F#m"cFc "D7/C"^BFB|"F#m"FGA "Fm"^Bcd|"C#"^efg"F#m"f3:|]
